storage/app/icons/phosphoricons/fill/textbox-fill.svg

<svg xmlns="http://www.w3.org/2000/svg" fill="currentColor" viewBox="0 0 256 256"><path d="M248 80v96a16 16 0 0 1-16 16h-92a4 4 0 0 1-4-4V68a4 4 0 0 1 4-4h92a16 16 0 0 1 16 16M120 48v160a8 8 0 0 1-16 0v-16H24a16 16 0 0 1-16-16V80a16 16 0 0 1 16-16h80V48a8 8 0 0 1 16 0m-32 64a8 8 0 0 0-8-8H48a8 8 0 0 0 0 16h8v24a8 8 0 0 0 16 0v-24h8a8 8 0 0 0 8-8"/></svg>

<svg xmlns="http://www.w3.org/2000/svg" viewBox="0 0 256 256" fill="currentColor"><path d="M248,80v96a16,16,0,0,1-16,16H140a4,4,0,0,1-4-4V68a4,4,0,0,1,4-4h92A16,16,0,0,1,248,80ZM120,48V208a8,8,0,0,1-16,0V192H24A16,16,0,0,1,8,176V80A16,16,0,0,1,24,64h80V48a8,8,0,0,1,16,0ZM88,112a8,8,0,0,0-8-8H48a8,8,0,0,0,0,16h8v24a8,8,0,0,0,16,0V120h8A8,8,0,0,0,88,112Z"/></svg>
